X: 10662
M: 6/8
L: 1/8
K: D
(f/g/) |\
aba gfe | fdB B2A | d3 ede | faf e2 (f/g/) |\
aba gfe | fdB B2A | d3 ede | fdd d3 ::\
dAd dAd | eAe eAe | def gfe | fdd d2 :|


